device_themes/vtm_theme_poi/icons/fastfood.svg

<svg height="580" width="580" xmlns="http://www.w3.org/2000/svg"><path d="m66.275 1.768c-41.335 0-64.571 21.371-64.571 65.036v450.123c0 40.844 20.895 62.229 62.192 62.229h452.024c41.307 0 62.229-20.315 62.229-62.229v-450.123c0-42.601-20.922-65.036-63.521-65.036-.004 0-448.495-.143-448.353 0z" fill="none"/><path d="m-4.9023438-73.108887-2.1203613 7.480469h-10.7995609l2.600098 20.639648h8.8391114l2.6403808-20.639648h-1.9995117l2.0800781-7.120361zm-14.2004392 19.520264c.213196-1.866853-1.19997-2.880035-4.239502-3.039551h-7.320557c-3.039556.159516-4.46615 1.172698-4.279785 3.039551zm-15.839844 5.600586c-.186365 1.866048 1.240229 2.865803 4.279785 2.999267h7.320557c3.039532-.133464 4.452698-1.133219 4.239502-2.999267zm15.159912-4.160156h-14.520264c-.372725.000006-.692549.133266-.959472.39978-.266931.266525-.400394.573125-.400391.9198-.000003.400395.13346.727136.400391.980224.266923.253096.586747.379642.959472.379639h14.520264c.373516.000003.693543-.126543.960083-.379639.2665-.253088.39976-.579829.39978-.980224-.00002-.346675-.13328-.653275-.39978-.9198-.26654-.266514-.586567-.399774-.960083-.39978z" fill="#734a08" transform="matrix(14.685839 0 0 14.685839 577.76584 1150.0639)"/></svg>

<?xml version="1.0" encoding="UTF-8" standalone="no"?>
<!-- Created with Inkscape (http://www.inkscape.org/) -->
<svg
   xmlns:dc="http://purl.org/dc/elements/1.1/"
   xmlns:cc="http://creativecommons.org/ns#"
   xmlns:rdf="http://www.w3.org/1999/02/22-rdf-syntax-ns#"
   xmlns:svg="http://www.w3.org/2000/svg"
   xmlns="http://www.w3.org/2000/svg"
   xmlns:sodipodi="http://sodipodi.sourceforge.net/DTD/sodipodi-0.dtd"
   xmlns:inkscape="http://www.inkscape.org/namespaces/inkscape"
   version="1.0"
   width="580"
   height="580"
   id="svg2"
   sodipodi:version="0.32"
   inkscape:version="0.46"
   sodipodi:docname="food_fastfood.svg"
   sodipodi:docbase="s:\Data\FacilityIcons"
   inkscape:output_extension="org.inkscape.output.svg.inkscape">
  <metadata
     id="metadata2975">
    <rdf:RDF>
      <cc:Work
         rdf:about="">
        <dc:format>image/svg+xml</dc:format>
        <dc:type
           rdf:resource="http://purl.org/dc/dcmitype/StillImage" />
			  <cc:license
           rdf:resource="http://web.resource.org/cc/PublicDomain" />
        <dc:language>en</dc:language>
      </cc:Work>
    </rdf:RDF>
  </metadata>
  <sodipodi:namedview
     inkscape:window-height="947"
     inkscape:window-width="1048"
     inkscape:pageshadow="2"
     inkscape:pageopacity="0.0"
     guidetolerance="10.0"
     gridtolerance="10.0"
     objecttolerance="10.0"
     borderopacity="1.0"
     bordercolor="#666666"
     pagecolor="#ffffff"
     id="base"
     inkscape:zoom="0.92167712"
     inkscape:cx="301.5186"
     inkscape:cy="281.19503"
     inkscape:window-x="91"
     inkscape:window-y="25"
     inkscape:current-layer="svg2"
     showgrid="false" />
  <defs
     id="defs4">
    <inkscape:perspective
       sodipodi:type="inkscape:persp3d"
       inkscape:vp_x="0 : 290 : 1"
       inkscape:vp_y="0 : 1000 : 0"
       inkscape:vp_z="580 : 290 : 1"
       inkscape:persp3d-origin="290 : 193.33333 : 1"
       id="perspective2441" />
    <inkscape:perspective
       id="perspective3452"
       inkscape:persp3d-origin="30 : 20 : 1"
       inkscape:vp_z="60 : 30 : 1"
       inkscape:vp_y="0 : 1000 : 0"
       inkscape:vp_x="0 : 30 : 1"
       sodipodi:type="inkscape:persp3d" />
    <symbol
       viewBox="244.5 110 489 219.9"
       id="symbol-university">
      <path
         id="path4460"
         d="M79,43l57,119c0,0,21-96,104-96s124,106,124,106l43-133l82-17L0,17L79,43z" />
      <path
         id="path4462"
         d="M94,176l-21,39"
         stroke-width="20"
         stroke="#000000"
         fill="none" />
      <path
         id="path4464"
         d="M300,19c0,10.5-22.6,19-50.5,19S199,29.5,199,19s22.6-19,50.5-19S300,8.5,300,19z" />
      <path
         id="path4466"
         d="M112,216l-16-38L64,88c0,0-9-8-4-35s16-24,16-24"
         stroke-width="20"
         stroke="#000000"
         ill="none" />
    </symbol>
    <inkscape:perspective
       id="perspective4471"
       inkscape:persp3d-origin="372.04724 : 350.78739 : 1"
       inkscape:vp_z="744.09448 : 526.18109 : 1"
       inkscape:vp_y="0 : 1000 : 0"
       inkscape:vp_x="0 : 526.18109 : 1"
       sodipodi:type="inkscape:persp3d" />
    <inkscape:perspective
       id="perspective4668"
       inkscape:persp3d-origin="6 : 4 : 1"
       inkscape:vp_z="12 : 6 : 1"
       inkscape:vp_y="0 : 1000 : 0"
       inkscape:vp_x="0 : 6 : 1"
       sodipodi:type="inkscape:persp3d" />
  </defs>
  <g
     id="g1327">
    <path
       d="M 66.275,1.768 C 24.94,1.768 1.704,23.139 1.704,66.804 L 1.704,516.927 C 1.704,557.771 22.599,579.156 63.896,579.156 L 515.92,579.156 C 557.227,579.156 578.149,558.841 578.149,516.927 L 578.149,66.804 C 578.149,24.203 557.227,1.768 514.628,1.768 C 514.624,1.768 66.133,1.625 66.275,1.768 z "
       style="fill:none;stroke:none;stroke-width:3.40799999"
       id="path1329" />
  </g>
  <g
     id="layer3"
     inkscape:label="Layout"
     style="display:none;stroke:#757575;stroke-opacity:1"
     transform="matrix(48.14969,0,0,48.14969,-536.27327,-33.306752)">
    <rect
       style="fill:none;stroke:#757575;stroke-width:0.10000000000000001;stroke-miterlimit:4;stroke-dasharray:none;stroke-opacity:1;display:inline"
       id="rect4134"
       width="10"
       height="10"
       x="1"
       y="1" />
    <rect
       style="fill:none;stroke:#757575;stroke-width:0.10000000000000001;stroke-miterlimit:4;stroke-dasharray:none;stroke-opacity:1;display:inline"
       id="rect4136"
       width="8"
       height="8"
       x="2"
       y="2" />
  </g>
  <path
     transform="matrix(14.685839,0,0,14.685839,577.76584,1150.0639)"
     style="font-size:40px;font-style:normal;font-variant:normal;font-weight:normal;font-stretch:normal;text-align:start;line-height:125%;writing-mode:lr-tb;text-anchor:start;fill:#734A08;fill-opacity:1;stroke:none;stroke-width:1px;stroke-linecap:butt;stroke-linejoin:miter;stroke-opacity:1;font-family:NPSPICT3;-inkscape-font-specification:NPSPICT3"
     d="M -4.9023438,-73.108887 L -7.0227051,-65.628418 L -17.822266,-65.628418 L -15.222168,-44.98877 L -6.3830566,-44.98877 L -3.7426758,-65.628418 L -5.7421875,-65.628418 L -3.6621094,-72.748779 L -4.9023438,-73.108887 z M -19.102783,-53.588623 C -18.889587,-55.455476 -20.302753,-56.468658 -23.342285,-56.628174 L -30.662842,-56.628174 C -33.702398,-56.468658 -35.128992,-55.455476 -34.942627,-53.588623 L -19.102783,-53.588623 z M -34.942627,-47.988037 C -35.128992,-46.121989 -33.702398,-45.122234 -30.662842,-44.98877 L -23.342285,-44.98877 C -20.302753,-45.122234 -18.889587,-46.121989 -19.102783,-47.988037 L -34.942627,-47.988037 z M -19.782715,-52.148193 L -34.302979,-52.148193 C -34.675704,-52.148187 -34.995528,-52.014927 -35.262451,-51.748413 C -35.529382,-51.481888 -35.662845,-51.175288 -35.662842,-50.828613 C -35.662845,-50.428218 -35.529382,-50.101477 -35.262451,-49.848389 C -34.995528,-49.595293 -34.675704,-49.468747 -34.302979,-49.46875 L -19.782715,-49.46875 C -19.409199,-49.468747 -19.089172,-49.595293 -18.822632,-49.848389 C -18.556132,-50.101477 -18.422872,-50.428218 -18.422852,-50.828613 C -18.422872,-51.175288 -18.556132,-51.481888 -18.822632,-51.748413 C -19.089172,-52.014927 -19.409199,-52.148187 -19.782715,-52.148193 L -19.782715,-52.148193 z"
     id="flowRoot3192" />
</svg>
